X: 3
T: The Last Pint
R: hornpipe
M: 4/4
L: 1/8
K: Amaj
|:~A3F EFAB|cABc BAFE|~A3F EFAB|cABc B3z|~A3F EFAB|cABc BAFE|ABcA cdBA|GEFG BAAG:||A2 eA (3cde Ae|dcBA cAAG|A2 eA (3cde Ae|dcBA GEFG|A2 eA (3cde Ae|dcBA cAAG|~A3F EFAB|cABc B4:|||cdcA dedA|cdcA efe2|cdcA dedA|cdcA BAF2||cdcA dedA|cdcA efe2|cdcA dedA|cdcA BAF2|


Tune 223	Setting 12909

